src/assets/logoPokeball.svg

<?xml version="1.0" encoding="UTF-8"?>
<svg version="1.1" viewBox="0 0 3633 3633" xmlns="http://www.w3.org/2000/svg">
<path d="m1749.5 0.668c-132.99 5.257-256 22.91-382 54.823-380.37 96.338-722.4 317.03-969.4 625.51-229.08 286.09-365.01 629.7-393.03 993.5-4.246 55.12-4.572 65.362-4.545 143 0.027 79.597 0.644 96.862 5.518 154.5 30.728 363.36 170.49 708.92 401.01 991.5 70.316 86.196 151.09 168.53 235.95 240.51 89.015 75.506 188.32 144.21 291.63 201.77 227.35 126.67 481.06 202.84 741.87 222.7 43.928 3.346 54.621 3.711 123.5 4.212 74.818 0.544 98.981-0.061 150-3.758 282.49-20.469 554.84-106.27 797.41-251.21 162.96-97.374 312.06-221.8 436.99-364.67 161.78-185 283.36-398.16 359.4-630.06 36.255-110.57 61.792-224.81 76.117-340.5 5.202-42.009 8.841-84.067 12.244-141.5 1.647-27.793 2.291-133.1 0.921-150.5-0.606-7.7-1.556-23.225-2.112-34.5-3.545-71.991-13.237-154.12-27.081-229.5-59.83-325.75-208.14-628.85-429.36-877.5-50.585-56.856-116.5-121.62-173.82-170.79-119-102.07-253.61-190.71-388.71-255.97-229.2-110.7-464.4-169.9-720-181.23-19.597-0.868-122.96-1.121-142.5-0.349m19.5 200.01c-40.509 1.274-90.247 4.722-128.5 8.909-399.58 43.737-765.34 233.07-1033.7 535.11-135.58 152.57-241.53 330.86-311.15 523.6-79.641 220.48-110.15 458.36-89.045 694.21 16.167 180.63 64.263 362.42 138.8 524.61 16.937 36.856 17.593 38.119 19.441 37.411 2.155-0.825 741.38-427.49 742.63-428.63 1.057-0.964 1.036-1.036-7.262-23.893-40.963-112.84-53.689-241.37-36.086-364.5 16.449-115.06 58.487-222.93 124.71-320 46.322-67.902 104.46-128.7 171.04-178.86 72.917-54.939 157.74-97.404 244.7-122.5 160.89-46.439 335.81-38.442 489.97 22.402 108.19 42.699 206.56 110.37 283.42 194.96 11.498 12.655 26.104 29.581 31.729 36.769l2.15 2.748 371.85-214.64c204.52-118.05 372.17-214.93 372.57-215.28 0.806-0.719-16.951-26.644-36.028-52.599-172.01-234.04-405.4-419.02-671.19-531.97-201.13-85.476-420.06-129.58-637.01-128.32-18.975 0.11-38.325 0.32-43 0.467m1128.5 1122.5c-220.86 127.55-371.87 215.34-371.67 216.08 0.181 0.678 3.185 9.109 6.676 18.734 23.312 64.272 37.551 131.44 43.086 203.25 1.958 25.401 2.215 80.395 0.489 104.75-6.566 92.652-27.313 177.16-63.597 259.05-52.343 118.14-135.46 222.43-239.6 300.67-108.58 81.562-237.41 132.5-372.4 147.23-52.942 5.778-109.92 5.944-163.48 0.477-152.39-15.556-299.1-78.797-416-179.33-32.58-28.018-72.073-68.707-96.519-99.444l-3.019-3.796-371.98 214.72c-204.59 118.1-372.14 214.85-372.33 215.01-0.624 0.508 26.077 38.229 44.536 62.917 227.07 303.7 552.68 518.08 919.39 605.34 305.97 72.807 629.53 54.784 923.63-51.448 206.65-74.643 393.94-189.3 555.29-339.94 21.205-19.797 66.742-65.558 85.061-85.479 146.91-159.76 259.08-344.46 332.33-547.26 83.901-232.27 113.07-483.23 85.04-731.71-17.666-156.62-58.995-311.97-121.45-456.5-8.281-19.163-26.05-57.96-29.576-64.576l-1.906-3.576-372 214.84m-1108.7-51.199c-101.97 5.781-197.98 38.244-280.32 94.779-45.327 31.125-88.684 71.973-122.21 115.14-98.123 126.34-135.66 287.14-103.78 444.59 30.794 152.08 127.52 285.57 263.42 363.53 114.32 65.583 249.64 87.253 380.07 60.868 78.693-15.919 154.42-50.129 219.14-99.001 38.981-29.436 77.327-67.782 106.76-106.76 85.994-113.88 123.52-255.45 105.54-398.14-17.102-135.68-85.941-260.98-191.94-349.37-85.373-71.19-190.03-114.38-300.66-124.08-21.277-1.866-57.493-2.608-76.024-1.557m-1788.3 545.01c0 33.825 0.126 47.662 0.279 30.75 0.154-16.912 0.154-44.588 0-61.5-0.153-16.912-0.279-3.075-0.279 30.75" fill="#343334" fill-rule="evenodd"/>
<path d="m1769 200.67c-40.509 1.274-90.247 4.722-128.5 8.909-399.58 43.737-765.34 233.07-1033.7 535.11-135.58 152.57-241.53 330.86-311.15 523.6-79.641 220.48-110.15 458.36-89.045 694.21 16.167 180.63 64.263 362.42 138.8 524.61 16.937 36.856 17.593 38.119 19.441 37.411 2.155-0.825 741.38-427.49 742.63-428.63 1.057-0.964 1.036-1.036-7.262-23.893-40.963-112.84-53.689-241.37-36.086-364.5 16.449-115.06 58.487-222.93 124.71-320 46.322-67.902 104.46-128.7 171.04-178.86 72.917-54.939 157.74-97.404 244.7-122.5 160.89-46.439 335.81-38.442 489.97 22.402 108.19 42.699 206.56 110.37 283.42 194.96 11.498 12.655 26.104 29.581 31.729 36.769l2.15 2.748 371.85-214.64c204.52-118.05 372.17-214.93 372.57-215.28 0.806-0.719-16.951-26.644-36.028-52.599-172.01-234.04-405.4-419.02-671.19-531.97-201.13-85.476-420.06-129.58-637.01-128.32-18.975 0.11-38.325 0.32-43 0.467" fill="#eb1c24" fill-rule="evenodd"/>
</svg>

<svg xmlns="http://www.w3.org/2000/svg" width="3633" height="3633" viewBox="0 0 3633 3633" version="1.1"><path d="M 1749.500 0.668 C 1616.507 5.925, 1493.502 23.578, 1367.500 55.491 C 987.133 151.829, 645.104 372.525, 398.103 681 C 169.026 967.090, 33.094 1310.696, 5.071 1674.500 C 0.825 1729.620, 0.499 1739.862, 0.526 1817.500 C 0.553 1897.097, 1.170 1914.362, 6.044 1972 C 36.772 2335.355, 176.536 2680.921, 407.054 2963.500 C 477.370 3049.696, 558.141 3132.028, 643 3204.009 C 732.015 3279.515, 831.319 3348.222, 934.627 3405.783 C 1161.975 3532.457, 1415.686 3608.618, 1676.500 3628.486 C 1720.428 3631.832, 1731.121 3632.197, 1800 3632.698 C 1874.818 3633.242, 1898.981 3632.637, 1950 3628.940 C 2232.493 3608.471, 2504.840 3522.671, 2747.407 3377.726 C 2910.363 3280.352, 3059.462 3155.928, 3184.397 3013.057 C 3346.172 2828.057, 3467.762 2614.899, 3543.801 2382.995 C 3580.056 2272.421, 3605.593 2158.188, 3619.918 2042.500 C 3625.120 2000.491, 3628.759 1958.433, 3632.162 1901 C 3633.809 1873.207, 3634.453 1767.901, 3633.083 1750.500 C 3632.477 1742.800, 3631.527 1727.275, 3630.971 1716 C 3627.426 1644.009, 3617.734 1561.876, 3603.890 1486.500 C 3544.060 1160.754, 3395.752 857.654, 3174.526 609 C 3123.941 552.144, 3058.024 487.376, 3000.707 438.213 C 2881.703 336.139, 2747.099 247.501, 2612 182.247 C 2382.803 71.545, 2147.603 12.343, 1892 1.017 C 1872.403 0.149, 1769.042 -0.104, 1749.500 0.668 M 1769 200.674 C 1728.491 201.948, 1678.753 205.396, 1640.500 209.583 C 1240.924 253.320, 875.155 442.656, 606.753 744.690 C 471.175 897.256, 365.227 1075.546, 295.606 1268.291 C 215.965 1488.772, 185.453 1726.655, 206.561 1962.500 C 222.728 2143.134, 270.824 2324.924, 345.358 2487.114 C 362.295 2523.970, 362.951 2525.233, 364.799 2524.525 C 366.954 2523.700, 1106.175 2097.034, 1107.425 2095.893 C 1108.482 2094.929, 1108.461 2094.857, 1100.163 2072 C 1059.200 1959.162, 1046.474 1830.626, 1064.077 1707.500 C 1080.526 1592.439, 1122.564 1484.568, 1188.783 1387.500 C 1235.105 1319.598, 1293.241 1258.804, 1359.826 1208.636 C 1432.743 1153.697, 1517.569 1111.232, 1604.526 1086.133 C 1765.418 1039.694, 1940.340 1047.691, 2094.500 1108.535 C 2202.688 1151.234, 2301.056 1218.901, 2377.922 1303.500 C 2389.420 1316.155, 2404.026 1333.081, 2409.651 1340.269 L 2411.801 1343.017 2783.651 1128.380 C 2988.168 1010.330, 3155.825 913.453, 3156.223 913.099 C 3157.029 912.380, 3139.272 886.455, 3120.195 860.500 C 2948.184 626.465, 2714.792 441.482, 2449.008 328.528 C 2247.881 243.052, 2028.950 198.950, 1812 200.207 C 1793.025 200.317, 1773.675 200.527, 1769 200.674 M 2897.500 1323.190 C 2676.640 1450.743, 2525.633 1538.533, 2525.828 1539.266 C 2526.009 1539.944, 2529.013 1548.375, 2532.504 1558 C 2555.816 1622.272, 2570.055 1689.442, 2575.590 1761.250 C 2577.548 1786.651, 2577.805 1841.645, 2576.079 1866 C 2569.513 1958.652, 2548.766 2043.162, 2512.482 2125.054 C 2460.139 2243.190, 2377.024 2347.488, 2272.880 2425.720 C 2164.302 2507.282, 2035.470 2558.215, 1900.475 2572.948 C 1847.533 2578.726, 1790.559 2578.892, 1737 2573.425 C 1584.607 2557.869, 1437.903 2494.628, 1321 2394.095 C 1288.420 2366.077, 1248.927 2325.388, 1224.481 2294.651 L 1221.462 2290.855 849.481 2505.576 C 644.892 2623.672, 477.342 2720.425, 477.149 2720.583 C 476.525 2721.091, 503.226 2758.812, 521.685 2783.500 C 748.759 3087.195, 1074.370 3301.583, 1441.079 3388.842 C 1747.048 3461.649, 2070.611 3443.626, 2364.709 3337.394 C 2571.357 3262.751, 2758.650 3148.092, 2920 2997.453 C 2941.205 2977.656, 2986.742 2931.895, 3005.061 2911.974 C 3151.974 2752.219, 3264.139 2567.512, 3337.394 2364.709 C 3421.295 2132.435, 3450.461 1881.479, 3422.434 1633 C 3404.768 1476.377, 3363.439 1321.034, 3300.982 1176.500 C 3292.701 1157.337, 3274.932 1118.540, 3271.406 1111.924 L 3269.500 1108.348 2897.500 1323.190 M 1788.817 1271.991 C 1686.845 1277.772, 1590.833 1310.235, 1508.500 1366.770 C 1463.173 1397.895, 1419.816 1438.743, 1386.289 1481.912 C 1288.166 1608.251, 1250.631 1769.050, 1282.511 1926.500 C 1313.305 2078.583, 1410.032 2212.072, 1545.930 2290.031 C 1660.253 2355.614, 1795.567 2377.284, 1926 2350.899 C 2004.693 2334.980, 2080.415 2300.770, 2145.135 2251.898 C 2184.116 2222.462, 2222.462 2184.116, 2251.898 2145.135 C 2337.892 2031.256, 2375.420 1889.683, 2357.436 1747 C 2340.334 1611.320, 2271.495 1486.016, 2165.500 1397.631 C 2080.127 1326.441, 1975.473 1283.250, 1864.841 1273.548 C 1843.564 1271.682, 1807.348 1270.940, 1788.817 1271.991 M 0.470 1817 C 0.470 1850.825, 0.596 1864.662, 0.749 1847.750 C 0.903 1830.838, 0.903 1803.162, 0.749 1786.250 C 0.596 1769.338, 0.470 1783.175, 0.470 1817" stroke="none" fill="#343334" fill-rule="evenodd"/><path d="M 1769 200.674 C 1728.491 201.948, 1678.753 205.396, 1640.500 209.583 C 1240.924 253.320, 875.155 442.656, 606.753 744.690 C 471.175 897.256, 365.227 1075.546, 295.606 1268.291 C 215.965 1488.772, 185.453 1726.655, 206.561 1962.500 C 222.728 2143.134, 270.824 2324.924, 345.358 2487.114 C 362.295 2523.970, 362.951 2525.233, 364.799 2524.525 C 366.954 2523.700, 1106.175 2097.034, 1107.425 2095.893 C 1108.482 2094.929, 1108.461 2094.857, 1100.163 2072 C 1059.200 1959.162, 1046.474 1830.626, 1064.077 1707.500 C 1080.526 1592.439, 1122.564 1484.568, 1188.783 1387.500 C 1235.105 1319.598, 1293.241 1258.804, 1359.826 1208.636 C 1432.743 1153.697, 1517.569 1111.232, 1604.526 1086.133 C 1765.418 1039.694, 1940.340 1047.691, 2094.500 1108.535 C 2202.688 1151.234, 2301.056 1218.901, 2377.922 1303.500 C 2389.420 1316.155, 2404.026 1333.081, 2409.651 1340.269 L 2411.801 1343.017 2783.651 1128.380 C 2988.168 1010.330, 3155.825 913.453, 3156.223 913.099 C 3157.029 912.380, 3139.272 886.455, 3120.195 860.500 C 2948.184 626.465, 2714.792 441.482, 2449.008 328.528 C 2247.881 243.052, 2028.950 198.950, 1812 200.207 C 1793.025 200.317, 1773.675 200.527, 1769 200.674" stroke="none" fill="#eb1c24" fill-rule="evenodd"/></svg>
